X:7
T:Escapade, L'
C:Cantelo c1785
M:2/4
R:polka
K:Bb
T:B flat version
B2B2 cBcA|B2B2 cBcA|B2B2 c2c2|d2d2 ecAF|B2B2 cBcA|B2B2 cBcA|B2B2 c2c2|decA B4:|
B2(b2 b2)fd|c2(e2 e2)dc|B2d2 B2d2|cBAG FEDC|B2(b2 b2)fd|c2(e2 e2)dc|B2d2 B2d2|fedc B4:|
F3E D2F2|G2G2 E4|c4 BAGF|Bcdc B2B2|F3E D2F2|G2G2 E4|c2c2 ABcA|B4 B4:|
T:G version
K:G
G2G2 AGAF|G2G2 AGAF|G2G2 A2A2|B2B2 cAFD|G2G2 AGAF|G2G2 AGAF|G2G2 A2A2|BcAF G4:|
G2(g2 g2)dB|A2(c2 c2)BA|G2B2 G2B2|AGFE DCB,A,|G2(g2 g2)dB|A2(c2 c2)BA|G2B2 G2B2|dcBA G4:|
D3C B,2D2|E2E2 C4|A4 GFED|GABA G2G2|D3C B,2D2|E2E2 C4|A2A2 FGAF|G4 G4:|

